X:1
T:Title
%%score [ ( 1 2 ) ( 3 4 ) ] { ( 5 6 ) | ( 7 8 ) }
L:1/8
Q:1/4=120
M:4/4
K:C
V:1 treble nm="Midi_74"
V:2 treble 
V:3 bass nm="Midi_74"
V:4 bass 
V:5 treble nm="Org."
V:6 treble 
V:7 bass 
V:8 bass 
V:1
"^136th Psalm" z8 | z8 | z8 || (c6 d2) | e4 (f2 e2) | d4 c4 | d8 || z8 | z8 | z8 || e8 | %11
 (g2 f2) (e2 d2) |"^John Camidge\n(1790-1859)" c4 B4 |{d} c8 |] %14
V:2
 (C6 D2) | E4 F4 |{A} G8 || G8 | G4 G4 | G4 ^F4 | G8 || (E6 F2) | (A2 G2) (F2 E2) |{E} D8 || %10
 [CG]8 | A4 C4 | E4 D4 |{F} E8 |] %14
V:3
"^Verse" (E,6 G,2) | C4 D4 |{F} E6 D2 ||"^Chorus" (C6 B,2) | C4 (D2 C2) | D4 D4 |{C} B,8 || %7
"^Verse" (C6 B,2) | C4 (D2 C2) |{C} B,8 ||"^Chorus" C8 | C4 A,4 | G,4 G,4 | G,8 |] %14
V:4
 C,8 | C,4 C,4 | C,8 || (E,6 D,2) | C,4 (B,,2 C,2) | B,,4 A,,4 | G,,8 || (C,6 D,2) | E,4 F,4 | %9
 G,8 || (C,6 B,,2) | A,,4 F,,4 | G,,4 G,,4 | C,8 |] %14
V:5
"^pia" C6 D2 | E4 F4 |{!turn!A} G8 ||"^FULL" c6 d2 | e4 f2 e2 | d4 c4 |{[ce]} d8 ||"^pia" E6 F2 | %8
 A2 G2 F2 E2 |{[CE]} D8 ||"^FULL" [ce]8 | g2 f2 e2 d2 | c4 B4 |{[FGd]} c8 |] %14
V:6
 x8 | C4 D4 | E8 || [CG]6 [FGB]2 | [EGc]4 [Gd]2 [Gc]2 | [DG]4 [D^F]4 | [GB]8 || C6 B,2 | C4 D2 C2 | %9
 B,8 || G8 | [Fc]4 [FA]4 | [EG]4 [DFG]4 | [EG]8 |] %14
V:7
 E,6 G,2 | x4 x2 x x | x8 ||"^8 vi" x8 | x8 | x8 | x8 || x8 | x8 | x8 || x8 | x8 | x8 | x8 |] %14
V:8
 C,8- | C,8 | C,6 D,2 || E,6 D,2 | C,4 B,,2 C,2 | B,,4 A,,4 | G,,8 || C,6 D,2 | E,4 F,4 | G,8 || %10
 [C,C]6 [B,,B,]2 | [A,,A,]4 [F,,F,]4 | [G,,G,]4 [G,,G,]4 | [C,,C,]8 |] %14

